X:1
T:Sunny, Shiny, Forest
M:4/4
Q:1/4 = 180
L:1/4
K:D
| "Dmaj7" D/2F/2A/2F/2 "A7" A/2C/2E/2A/2 | "Gmaj7" G/2B/2d/2B/2 "F#m7" A/2F/2C/2E/2 | "Em7" E/2G/2B/2E/2 "Bm7" D/2F/2A/2D/2 | "E7" ^G/2B/2D/2G/2 "A7" A/2E/2C/2A/2 |
| "Dmaj7" D/2F/2A/2F/2 "Gmaj7" G/2B/2d/2B/2 | "F#m7" A/2F/2C/2E/2 "Bm7" D/2F/2A/2D/2 | "E7" ^G/2B/2D/2G/2 "A7" A/2E/2C/2A/2 | "Dmaj7" D/2F/2A/2F/2 "A7" AE |
| "Dmaj7" DF "Gmaj7" GB | "F#m7" A/2F/2C/2E/2 "Em7" G/2B/2D/2G/2 | "A7" A/2E/2C/2A/2 "Dmaj7" DF | "Gmaj7" GB "A7" AE |
| "Dmaj7" D2 "Gmaj7" G2 | "F#m7" A/2F/2C/2E/2 "Bm7" D/2F/2A/2D/2 | "E7" ^G/2B/2D/2G/2 "A7" A/2E/2C/2A/2 | "Dmaj7" DF "A7" AE |"Dmaj7" D C D2 |
```